SVG_Azure_Grouped/Application/FTP.svg

<?xml version="1.0" encoding="UTF-8" standalone="no"?>
<!-- Generated by Microsoft Visio, SVG Export FTP.svg Page-1 -->

<svg
   xmlns:dc="http://purl.org/dc/elements/1.1/"
   xmlns:cc="http://creativecommons.org/ns#"
   xmlns:rdf="http://www.w3.org/1999/02/22-rdf-syntax-ns#"
   xmlns:svg="http://www.w3.org/2000/svg"
   xmlns="http://www.w3.org/2000/svg"
   xmlns:sodipodi="http://sodipodi.sourceforge.net/DTD/sodipodi-0.dtd"
   xmlns:inkscape="http://www.inkscape.org/namespaces/inkscape"
   width="0.74110943in"
   height="0.65637875in"
   viewBox="0 0 53.359877 47.259387"
   xml:space="preserve"
   class="st4"
   version="1.1"
   id="svg52"
   sodipodi:docname="FTP.svg"
   style="font-size:12px;overflow:visible;color-interpolation-filters:sRGB;fill:none;fill-rule:evenodd;stroke-linecap:square;stroke-miterlimit:3"
   inkscape:version="0.92.5 (2060ec1f9f, 2020-04-08)"><metadata
   id="metadata56"><rdf:RDF><cc:Work
       rdf:about=""><dc:format>image/svg+xml</dc:format><dc:type
         rdf:resource="http://purl.org/dc/dcmitype/StillImage" /></cc:Work></rdf:RDF></metadata><sodipodi:namedview
   pagecolor="#ffffff"
   bordercolor="#666666"
   borderopacity="1"
   objecttolerance="10"
   gridtolerance="10"
   guidetolerance="10"
   inkscape:pageopacity="0"
   inkscape:pageshadow="2"
   inkscape:window-width="640"
   inkscape:window-height="480"
   id="namedview54"
   showgrid="false"
   inkscape:zoom="1.8365233"
   inkscape:cx="33.355203"
   inkscape:cy="18.900365"
   inkscape:window-x="0"
   inkscape:window-y="0"
   inkscape:window-maximized="0"
   inkscape:current-layer="svg52" />
	<style
   type="text/css"
   id="style2">
	<![CDATA[
		.st1 {fill:url(#grad0-6);stroke:none;stroke-linecap:butt;stroke-width:0.75}
		.st2 {fill:#0078d4;stroke:none;stroke-linecap:butt;stroke-width:0.75}
		.st3 {fill:#f2f2f2;stroke:none;stroke-linecap:butt;stroke-width:0.75}
		.st4 {fill:none;fill-rule:evenodd;font-size:12px;overflow:visible;stroke-linecap:square;stroke-miterlimit:3}
	]]>
	</style>

	<defs
   id="Patterns_And_Gradients">
		<linearGradient
   id="grad0-6"
   x1="2.6868939"
   y1="76.39336"
   x2="45.741828"
   y2="76.39336"
   gradientTransform="scale(1.2393472,0.80687641)"
   gradientUnits="userSpaceOnUse">
			<stop
   offset="0"
   stop-color="#32bedd"
   stop-opacity="1"
   id="stop4" />
			<stop
   offset="0.175"
   stop-color="#32caea"
   stop-opacity="1"
   id="stop6" />
			<stop
   offset="0.41"
   stop-color="#32d2f2"
   stop-opacity="1"
   id="stop8" />
			<stop
   offset="0.775"
   stop-color="#32d4f5"
   stop-opacity="1"
   id="stop10" />
		</linearGradient>
	</defs>
	<g
   id="g50"
   transform="translate(-8.9993716,-15.104922)">
		<title
   id="title14">Page-1</title>
		<g
   id="group13976-1"
   transform="translate(5.66929,-34.0157)">
			<title
   id="title16">FTP.13976</title>
			<g
   id="group13977-2">
				<title
   id="title18">Sheet.13977</title>
				<g
   id="shape13978-3">
					<title
   id="title20">Sheet.13978</title>
					<path
   d="m 3.33,61.64 h 53.36 v 32.77 a 1.78416,1.96506 0 0 1 -1.78,1.97 H 5.12 A 1.78416,1.96506 0 0 1 3.33,94.41 Z"
   class="st1"
   id="path22"
   inkscape:connector-curvature="0"
   style="fill:url(#grad0-6);stroke:none;stroke-width:0.75;stroke-linecap:butt" />
				</g>
				<g
   id="shape13979-7"
   transform="translate(0,-34.7393)">
					<title
   id="title25">Sheet.13979</title>
					<path
   d="M 5.13,83.86 H 54.9 a 1.78416,1.96506 0 0 1 1.79,1.95 V 96.38 H 3.33 V 85.81 a 1.78416,1.96506 0 0 1 1.8,-1.95 z"
   class="st2"
   id="path27"
   inkscape:connector-curvature="0"
   style="fill:#0078d4;stroke:none;stroke-width:0.75;stroke-linecap:butt" />
				</g>
				<g
   id="shape13980-9"
   transform="translate(10.845,-38.585)">
					<title
   id="title30">Sheet.13980</title>
					<path
   d="m 0,95.41 a 0.877093,0.966024 -180 0 0 0.877073,0.966002 L 37.47,96.38 a 0.877093,0.966024 -180 0 0 0.877073,-0.966002 L 38.35,92.39 A 0.877093,0.966024 -180 0 0 37.472927,91.423998 L 0.88,91.42 a 0.877093,0.966024 -180 0 0 -0.877073,0.966002 z"
   class="st3"
   id="path32"
   inkscape:connector-curvature="0"
   style="fill:#f2f2f2;stroke:none;stroke-width:0.75;stroke-linecap:butt" />
				</g>
				<g
   id="group13981-11"
   transform="translate(16.1041,-6.57836)">
					<title
   id="title35">Sheet.13981</title>
					<g
   id="shape13982-12">
						<title
   id="title37">Sheet.13982</title>
						<path
   d="M 5.94,95.74 12.8,75.36 A 0.900417,0.991713 -180 0 0 11.956276,74.0267 L 7.69,74.03 A 0.897082,0.98804 -180 0 0 6.849611,74.67645 L 0,95.05 a 0.897082,0.98804 -180 0 0 0.840389,1.32963 L 5.1,96.38 a 0.900417,0.991713 -180 0 0 0.843724,-0.642777 z"
   class="st3"
   id="path39"
   inkscape:connector-curvature="0"
   style="fill:#f2f2f2;stroke:none;stroke-width:0.75;stroke-linecap:butt" />
					</g>
					<g
   id="shape13983-14"
   transform="translate(15.0236)">
						<title
   id="title42">Sheet.13983</title>
						<path
   d="M 5.94,95.74 12.8,75.36 A 0.897082,0.98804 -180 0 0 11.959611,74.0267 L 7.7,74.03 A 0.897082,0.98804 -180 0 0 6.856276,74.67645 L 0,95.05 a 0.897082,0.98804 -180 0 0 0.843724,1.32963 L 5.1,96.38 a 0.897082,0.98804 -180 0 0 0.840389,-0.642777 z"
   class="st3"
   id="path44"
   inkscape:connector-curvature="0"
   style="fill:#f2f2f2;stroke:none;stroke-width:0.75;stroke-linecap:butt" />
					</g>
				</g>
			</g>
		</g>
	</g>
</svg>

<?xml version="1.0" encoding="UTF-8" standalone="no"?>
<!DOCTYPE svg PUBLIC "-//W3C//DTD SVG 1.1//EN" "http://www.w3.org/Graphics/SVG/1.1/DTD/svg11.dtd">
<!-- Generated by Microsoft Visio, SVG Export FTP.svg Page-1 -->
<svg xmlns="http://www.w3.org/2000/svg" xmlns:xlink="http://www.w3.org/1999/xlink" xmlns:ev="http://www.w3.org/2001/xml-events"
		width="0.944882in" height="1.33858in" viewBox="0 0 68.0315 96.378" xml:space="preserve" color-interpolation-filters="sRGB"
		class="st4">
	<style type="text/css">
	<![CDATA[
		.st1 {fill:url(#grad0-6);stroke:none;stroke-linecap:butt;stroke-width:0.75}
		.st2 {fill:#0078d4;stroke:none;stroke-linecap:butt;stroke-width:0.75}
		.st3 {fill:#f2f2f2;stroke:none;stroke-linecap:butt;stroke-width:0.75}
		.st4 {fill:none;fill-rule:evenodd;font-size:12px;overflow:visible;stroke-linecap:square;stroke-miterlimit:3}
	]]>
	</style>

	<defs id="Patterns_And_Gradients">
		<linearGradient id="grad0-6" x1="0" y1="0" x2="1" y2="0" gradientTransform="rotate(-90 0.5 0.5)">
			<stop offset="0" stop-color="#32bedd" stop-opacity="1"/>
			<stop offset="0.175" stop-color="#32caea" stop-opacity="1"/>
			<stop offset="0.41" stop-color="#32d2f2" stop-opacity="1"/>
			<stop offset="0.775" stop-color="#32d4f5" stop-opacity="1"/>
		</linearGradient>
	</defs>
	<g>
		<title>Page-1</title>
		<g id="group13629-1" transform="translate(5.66929,-34.0157)">
			<title>FTP.13629</title>
			<g id="group13630-2">
				<title>Sheet.13630</title>
				<g id="shape13631-3">
					<title>Sheet.13631</title>
					<path d="M3.33 61.64 L56.69 61.64 L56.69 94.41 A1.78416 1.96506 0 0 1 54.91 96.38 L5.12 96.38 A1.78416 1.96506
								 0 0 1 3.33 94.41 L3.33 61.64 Z" class="st1"/>
				</g>
				<g id="shape13632-7" transform="translate(0,-34.7393)">
					<title>Sheet.13632</title>
					<path d="M5.13 83.86 L54.9 83.86 A1.78416 1.96506 0 0 1 56.69 85.81 L56.69 96.38 L3.33 96.38 L3.33 85.81 A1.78416
								 1.96506 0 0 1 5.13 83.86 Z" class="st2"/>
				</g>
				<g id="shape13633-9" transform="translate(10.845,-38.585)">
					<title>Sheet.13633</title>
					<path d="M-0 95.41 a0.877093 0.966024 -180 0 0 0.877073 0.966002 L37.47 96.38 a0.877093 0.966024 -180 0 0 0.877073
								 -0.966002 L38.35 92.39 a0.877093 0.966024 -180 0 0 -0.877073 -0.966002 L0.88 91.42 a0.877093 0.966024
								 -180 0 0 -0.877073 0.966002 L0 95.41 Z" class="st3"/>
				</g>
				<g id="group13634-11" transform="translate(16.1041,-6.57836)">
					<title>Sheet.13634</title>
					<g id="shape13635-12">
						<title>Sheet.13635</title>
						<path d="M5.94 95.74 L12.8 75.36 a0.900417 0.991713 -180 0 0 -0.843724 -1.3333 L7.69 74.03 a0.897082 0.98804
									 -180 0 0 -0.840389 0.64645 L0 95.05 a0.897082 0.98804 -180 0 0 0.840389 1.32963 L5.1 96.38 a0.900417
									 0.991713 -180 0 0 0.843724 -0.642777 Z" class="st3"/>
					</g>
					<g id="shape13636-14" transform="translate(15.0236,0)">
						<title>Sheet.13636</title>
						<path d="M5.94 95.74 L12.8 75.36 a0.897082 0.98804 -180 0 0 -0.840389 -1.3333 L7.7 74.03 a0.897082 0.98804
									 -180 0 0 -0.843724 0.64645 L0 95.05 a0.897082 0.98804 -180 0 0 0.843724 1.32963 L5.1 96.38 a0.897082
									 0.98804 -180 0 0 0.840389 -0.642777 Z" class="st3"/>
					</g>
				</g>
			</g>
		</g>
	</g>
</svg>
